swiss/communes/0735.svg

<?xml version="1.0" encoding="UTF-8" standalone="no"?>
<svg
   xmlns:dc="http://purl.org/dc/elements/1.1/"
   xmlns:cc="http://web.resource.org/cc/"
   xmlns:rdf="http://www.w3.org/1999/02/22-rdf-syntax-ns#"
   xmlns:svg="http://www.w3.org/2000/svg"
   xmlns="http://www.w3.org/2000/svg"
   xmlns:xlink="http://www.w3.org/1999/xlink"
   xmlns:sodipodi="http://sodipodi.sourceforge.net/DTD/sodipodi-0.dtd"
   xmlns:inkscape="http://www.inkscape.org/namespaces/inkscape"
   height="763"
   width="603"
   version="1.0"
   id="svg20"
   sodipodi:version="0.32"
   inkscape:version="0.44.1"
   sodipodi:docname="Epsach.svg"
   sodipodi:docbase="F:\Mis Documentos\Mis imágenes\Encyclopédie\Escudos de Suiza">
  <metadata
     id="metadata31">
    <rdf:RDF>
      <cc:Work
         rdf:about="">
        <dc:format>image/svg+xml</dc:format>
        <dc:type
           rdf:resource="http://purl.org/dc/dcmitype/StillImage" />
        <dc:date>07-AUG-2006</dc:date>
        <dc:creator>
          <cc:Agent>
            <dc:title>Jérôme BLUM (wagner51)</dc:title>
          </cc:Agent>
        </dc:creator>
        <cc:license
           rdf:resource="http://creativecommons.org/licenses/GPL/2.0/" />
        <dc:coverage />
        <dc:description>Gabarit pour le Projet:Blasons de WIkipédia</dc:description>
        <dc:subject>
          <rdf:Bag>
            <rdf:li>blason suisse modèle gabarit projet blasons</rdf:li>
          </rdf:Bag>
        </dc:subject>
        <dc:language>fr</dc:language>
        <dc:title>Gabrit d'un blason suisse</dc:title>
      </cc:Work>
      <cc:License
         rdf:about="http://creativecommons.org/licenses/GPL/2.0/">
        <cc:permits
           rdf:resource="http://web.resource.org/cc/Reproduction" />
        <cc:permits
           rdf:resource="http://web.resource.org/cc/Distribution" />
        <cc:requires
           rdf:resource="http://web.resource.org/cc/Notice" />
        <cc:permits
           rdf:resource="http://web.resource.org/cc/DerivativeWorks" />
        <cc:requires
           rdf:resource="http://web.resource.org/cc/ShareAlike" />
        <cc:requires
           rdf:resource="http://web.resource.org/cc/SourceCode" />
      </cc:License>
    </rdf:RDF>
  </metadata>
  <defs
     id="defs29">
    <linearGradient
       id="linearGradient2893">
      <stop
         style="stop-color:#ffffff;stop-opacity:0.3137255;"
         offset="0"
         id="stop2895" />
      <stop
         id="stop2897"
         offset="0.19"
         style="stop-color:#ffffff;stop-opacity:0.25098041;" />
      <stop
         style="stop-color:#6b6b6b;stop-opacity:0.1254902;"
         offset="0.60000002"
         id="stop2901" />
      <stop
         style="stop-color:#000000;stop-opacity:0.1254902;"
         offset="1"
         id="stop2899" />
    </linearGradient>
    <linearGradient
       id="linearGradient2955">
      <stop
         style="stop-color:white;stop-opacity:0;"
         offset="0"
         id="stop2965" />
      <stop
         style="stop-color:black;stop-opacity:0.64583331;"
         offset="1"
         id="stop2959" />
    </linearGradient>
    <radialGradient
       inkscape:collect="always"
       xlink:href="#linearGradient2893"
       id="radialGradient3236"
       gradientUnits="userSpaceOnUse"
       gradientTransform="matrix(1.215027,1.531577e-24,1.464684e-23,1.266667,-839.1924,-490.4894)"
       cx="858.04236"
       cy="579.93323"
       fx="858.04236"
       fy="579.93323"
       r="300" />
  </defs>
  <sodipodi:namedview
     inkscape:window-height="682"
     inkscape:window-width="1024"
     inkscape:pageshadow="2"
     inkscape:pageopacity="0.0"
     guidetolerance="10.0"
     gridtolerance="10.0"
     objecttolerance="10.0"
     borderopacity="1.0"
     bordercolor="#666666"
     pagecolor="#ffffff"
     id="base"
     inkscape:zoom="0.48301887"
     inkscape:cx="685.927"
     inkscape:cy="480.48299"
     inkscape:window-x="-4"
     inkscape:window-y="-4"
     inkscape:current-layer="layer2"
     showgrid="true" />
  <desc
     id="desc22">Coat of Arms of Canton of Freiburg (Fribourg)</desc>
  <g
     inkscape:groupmode="layer"
     id="layer1"
     inkscape:label="Fond écu"
     sodipodi:insensitive="true">
    <path
       id="path1899"
       d="M 1.5,1.49998 L 1.5,460.3679 C 1.5,626.6785 135.81456,761.5 301.49999,761.5 C 467.18543,761.5 601.5,626.6785 601.5,460.3679 L 601.5,1.49998 L 1.5,1.49998 z "
       style="fill:#e20909;fill-opacity:1" />
    <path
       style="opacity:1;fill:white;fill-opacity:1;fill-rule:evenodd;stroke:black;stroke-width:2.99577618;stroke-linecap:square;stroke-linejoin:miter;stroke-miterlimit:4;stroke-dasharray:none;stroke-opacity:1"
       d="M 301.5,1.5 L 301.5,761.5 C 467.18546,761.5 601.5,626.6856 601.5,460.375 L 601.5,1.5 L 301.5,1.5 z "
       id="rect8181" />
  </g>
  <g
     inkscape:groupmode="layer"
     id="layer2"
     inkscape:label="Meubles"
     sodipodi:insensitive="true">
    <g
       id="g9080">
      <g
         transform="matrix(4.276602,0,0,4.276602,-2757.175,-1603.237)"
         id="g8165">
        <path
           style="opacity:1;fill:#e20909;fill-opacity:1;fill-rule:evenodd;stroke:black;stroke-width:0.89300847;stroke-linecap:square;stroke-linejoin:miter;stroke-miterlimit:4;stroke-dasharray:none;stroke-opacity:1"
           d="M 750,380.53125 C 737.03959,380.53125 726.53127,391.03961 726.53125,404 C 726.53125,416.9604 737.03961,427.46874 750,427.46875 C 762.96041,427.46875 773.46876,416.96041 773.46875,404 C 773.46875,391.0396 762.96042,380.53125 750,380.53125 z M 750.5,395.1875 C 755.09011,395.18751 758.8125,398.90986 758.8125,403.5 C 758.81252,408.09015 755.09014,411.8125 750.5,411.8125 C 745.90984,411.81249 742.1875,408.09014 742.1875,403.5 C 742.1875,398.90987 745.90986,395.1875 750.5,395.1875 z "
           id="path1921" />
        <path
           style="opacity:1;fill:#e20909;fill-opacity:1;fill-rule:evenodd;stroke:black;stroke-width:0.89300847;stroke-linecap:square;stroke-linejoin:miter;stroke-miterlimit:4;stroke-dasharray:none;stroke-opacity:1"
           d="M 750,431.53125 C 737.03959,431.53125 726.53127,442.03959 726.53125,455 C 726.53125,467.9604 737.03961,478.46875 750,478.46875 C 762.96041,478.46875 773.46876,467.96039 773.46875,455 C 773.46875,442.0396 762.96042,431.53126 750,431.53125 z M 750.5,446.1875 C 755.09011,446.18751 758.8125,449.90986 758.8125,454.5 C 758.81252,459.09015 755.09014,462.8125 750.5,462.8125 C 745.90984,462.81249 742.1875,459.09014 742.1875,454.5 C 742.1875,449.90987 745.90986,446.1875 750.5,446.1875 z "
           id="path2810" />
        <path
           style="opacity:1;fill:#e20909;fill-opacity:1;fill-rule:evenodd;stroke:black;stroke-width:0.89300847;stroke-linecap:square;stroke-linejoin:miter;stroke-miterlimit:4;stroke-dasharray:none;stroke-opacity:1"
           d="M 750,482.53125 C 737.03959,482.53125 726.53127,493.03959 726.53125,506 C 726.53125,518.9604 737.03961,529.46872 750,529.46875 C 762.96041,529.46875 773.46876,518.96039 773.46875,506 C 773.46875,493.0396 762.96042,482.53126 750,482.53125 z M 750.5,497.1875 C 755.09011,497.18751 758.8125,500.90986 758.8125,505.5 C 758.81252,510.09015 755.09014,513.8125 750.5,513.8125 C 745.90984,513.81252 742.1875,510.09014 742.1875,505.5 C 742.1875,500.90987 745.90986,497.1875 750.5,497.1875 z "
           id="path2812" />
      </g>
      <g
         transform="matrix(4.276602,0,0,4.276602,-2749.726,-1603.237)"
         id="g6389">
        <path
           style="fill:white;fill-opacity:1;fill-rule:evenodd;stroke:black;stroke-width:1px;stroke-linecap:butt;stroke-linejoin:miter;stroke-opacity:1"
           d="M 668.07859,411.71906 C 667.93468,413.71337 668.30313,415.43777 668.10724,417.42749 C 665.14407,447.52683 663.68304,477.90066 664.26803,508 L 697.56188,508 C 697.60776,477.7391 695.32692,447.48312 693.23769,417.44337 C 693.09663,415.41514 693.46442,413.658 693.35307,411.62757 C 700.00294,407.49126 700.44499,401.5997 700.91495,395.56188 L 659.9085,395.83637 C 660.16904,401.41075 659.82927,407.10262 668.07859,411.71906 z "
           id="path3729"
           sodipodi:nodetypes="csccscccc" />
        <rect
           style="opacity:1;fill:white;fill-opacity:1;fill-rule:evenodd;stroke:black;stroke-width:1.09673083;stroke-linecap:square;stroke-linejoin:miter;stroke-miterlimit:4;stroke-dasharray:none;stroke-opacity:1"
           id="rect3727"
           width="24.813494"
           height="5.9032631"
           x="668.21844"
           y="411.54837" />
        <rect
           style="opacity:1;fill:white;fill-opacity:1;fill-rule:evenodd;stroke:black;stroke-width:1.19825482;stroke-linecap:square;stroke-linejoin:miter;stroke-miterlimit:4;stroke-dasharray:none;stroke-opacity:1"
           id="rect3723"
           width="45.801743"
           height="10.801736"
           x="657.59912"
           y="386.59915" />
        <rect
           style="opacity:1;fill:white;fill-opacity:1;fill-rule:evenodd;stroke:black;stroke-width:1.08199561;stroke-linecap:square;stroke-linejoin:miter;stroke-miterlimit:4;stroke-dasharray:none;stroke-opacity:1"
           id="rect3725"
           width="45.569305"
           height="16.918028"
           x="658.54095"
           y="506.54099" />
      </g>
    </g>
  </g>
  <g
     inkscape:groupmode="layer"
     id="layer3"
     inkscape:label="Reflet final"
     style="display:inline"
     sodipodi:insensitive="true">
    <path
       style="fill:url(#radialGradient3236);fill-opacity:1"
       d="M 1.5,1.5 L 1.5,460.3679 C 1.5,626.67854 135.81454,761.5 301.49993,761.5 C 467.1854,761.5 601.5,626.67854 601.5,460.3679 L 601.5,1.5 L 1.5,1.5 z "
       id="path2346" />
  </g>
  <g
     inkscape:groupmode="layer"
     id="layer4"
     inkscape:label="Contour final"
     style="display:inline"
     sodipodi:insensitive="true">
    <path
       style="fill:none;fill-opacity:1;stroke:black;stroke-width:3;stroke-miterlimit:4;stroke-dasharray:none;stroke-opacity:1"
       d="M 1.5,1.5 L 1.5,460.36794 C 1.5,626.67854 135.81454,761.5 301.49993,761.5 C 467.1854,761.5 601.5,626.67854 601.5,460.36794 L 601.5,1.5 L 1.5,1.5 z "
       id="path3239" />
  </g>
</svg>

<svg xmlns="http://www.w3.org/2000/svg" xmlns:xlink="http://www.w3.org/1999/xlink" height="763" width="603" version="1.0"><defs><radialGradient xlink:href="#a" id="b" gradientUnits="userSpaceOnUse" gradientTransform="matrix(1.21503 0 0 1.26667 -839.192 -490.49)" cx="858.042" cy="579.933" fx="858.042" fy="579.933" r="300"/><linearGradient id="a"><stop style="stop-color:#fff;stop-opacity:.3137255" offset="0"/><stop offset=".19" style="stop-color:#fff;stop-opacity:.25098041"/><stop style="stop-color:#6b6b6b;stop-opacity:.1254902" offset=".6"/><stop style="stop-color:#000;stop-opacity:.1254902" offset="1"/></linearGradient></defs><path d="M1.5 1.5v458.868c0 166.31 134.315 301.132 300 301.132s300-134.822 300-301.132V1.5H1.5z" style="fill:#e20909;fill-opacity:1"/><path style="opacity:1;fill:#fff;fill-opacity:1;fill-rule:evenodd;stroke:#000;stroke-width:2.99577618;stroke-linecap:square;stroke-linejoin:miter;stroke-miterlimit:4;stroke-dasharray:none;stroke-opacity:1" d="M301.5 1.5v760c165.685 0 300-134.814 300-301.125V1.5h-300z"/><path style="opacity:1;fill:#e20909;fill-opacity:1;fill-rule:evenodd;stroke:#000;stroke-width:.89300847;stroke-linecap:square;stroke-linejoin:miter;stroke-miterlimit:4;stroke-dasharray:none;stroke-opacity:1" d="M750 380.531c-12.96 0-23.469 10.509-23.469 23.469S737.04 427.469 750 427.469 773.469 416.96 773.469 404 762.96 380.531 750 380.531zm.5 14.656a8.313 8.313 0 0 1 0 16.625 8.313 8.313 0 0 1 0-16.625zM750 431.531c-12.96 0-23.469 10.509-23.469 23.469S737.04 478.469 750 478.469 773.469 467.96 773.469 455 762.96 431.531 750 431.531zm.5 14.656a8.313 8.313 0 0 1 0 16.625 8.313 8.313 0 0 1 0-16.625zM750 482.531c-12.96 0-23.469 10.509-23.469 23.469S737.04 529.469 750 529.469 773.469 518.96 773.469 506 762.96 482.531 750 482.531zm.5 14.656a8.313 8.313 0 0 1 0 16.625 8.313 8.313 0 0 1 0-16.625z" transform="translate(-2757.175 -1603.237) scale(4.2766)"/><g><path style="fill:#fff;fill-opacity:1;fill-rule:evenodd;stroke:#000;stroke-width:1px;stroke-linecap:butt;stroke-linejoin:miter;stroke-opacity:1" d="M668.079 411.72c-.144 1.993.224 3.718.028 5.707-2.963 30.1-4.424 60.474-3.839 90.573h33.294c.046-30.26-2.235-60.517-4.324-90.557-.141-2.028.226-3.785.115-5.815 6.65-4.137 7.092-10.028 7.562-16.066l-41.006.274c.26 5.575-.08 11.267 8.17 15.883z" transform="translate(-2749.726 -1603.237) scale(4.2766)"/><path style="opacity:1;fill:#fff;fill-opacity:1;fill-rule:evenodd;stroke:#000;stroke-width:1.09673083;stroke-linecap:square;stroke-linejoin:miter;stroke-miterlimit:4;stroke-dasharray:none;stroke-opacity:1" d="M668.218 411.548h24.813v5.903h-24.813z" transform="translate(-2749.726 -1603.237) scale(4.2766)"/><path style="opacity:1;fill:#fff;fill-opacity:1;fill-rule:evenodd;stroke:#000;stroke-width:1.19825482;stroke-linecap:square;stroke-linejoin:miter;stroke-miterlimit:4;stroke-dasharray:none;stroke-opacity:1" d="M657.599 386.599h45.802v10.802h-45.802z" transform="translate(-2749.726 -1603.237) scale(4.2766)"/><path style="opacity:1;fill:#fff;fill-opacity:1;fill-rule:evenodd;stroke:#000;stroke-width:1.08199561;stroke-linecap:square;stroke-linejoin:miter;stroke-miterlimit:4;stroke-dasharray:none;stroke-opacity:1" d="M658.541 506.541h45.569v16.918h-45.569z" transform="translate(-2749.726 -1603.237) scale(4.2766)"/></g><g style="display:inline"><path style="fill:url(#b);fill-opacity:1" d="M1.5 1.5v458.868c0 166.31 134.315 301.132 300 301.132s300-134.821 300-301.132V1.5H1.5z"/></g><g style="display:inline"><path style="fill:none;fill-opacity:1;stroke:#000;stroke-width:3;stroke-miterlimit:4;stroke-dasharray:none;stroke-opacity:1" d="M1.5 1.5v458.868c0 166.31 134.315 301.132 300 301.132s300-134.821 300-301.132V1.5H1.5z"/></g></svg>
